; generated by PrusaSlicer 2.6.0+win64 on 2023-09-19 at 20:22:20 UTC


;
;
; 

; external perimeters extrusion width = 0.60mm
; perimeters extrusion width = 0.50mm
; infill extrusion width = 0.50mm
; solid infill extrusion width = 0.50mm
; top infill extrusion width = 0.45mm
; first layer extrusion width = 0.42mm

M73 P0 R73
M73 Q0 S73
M201 X1000 Y1000 Z200 E5000 ; sets maximum accelerations, mm/sec^2
M203 X200 Y200 Z12 E120 ; sets maximum feedrates, mm / sec
M204 S1250 T1250 ; sets acceleration (S) and retract acceleration (R), mm/sec^2
M205 X8.00 Y8.00 Z0.40 E4.50 ; sets the jerk limits, mm/sec
M205 S0 T0 ; sets the minimum extruding and travel feed rate, mm/sec
;TYPE:Custom
M862.3 P "MK3S" ; printer model check
M862.1 P0.4 ; nozzle diameter check
M115 U3.13.0 ; tell printer latest fw version
G90 ; use absolute coordinates
M83 ; extruder relative mode
M104 S238 ; set extruder temp
M140 S50 ; set bed temp
M190 S50 ; wait for bed temp
M109 S238 ; wait for extruder temp
G28 W ; home all without mesh bed level
G80 ; mesh bed leveling

G1 Z0.2 F720
G1 Y-3 F1000 ; go outside print area
G92 E0
G1 X60 E9 F1000 ; intro line
G1 X100 E12.5 F1000 ; intro line

G92 E0
M221 S95

; Don't change E values below. Excessive value can damage the printer.

M907 E538 ; set extruder motor current
G21 ; set units to millimeters
G90 ; use absolute coordinates
M83 ; use relative distances for extrusion
M900 K0 ; Filament gcode
M107
;LAYER_CHANGE
;Z:0.2
;HEIGHT:0.2
;BEFORE_LAYER_CHANGE
G92 E0.0
;0.2


G1 E-2.5 F3600
G1 Z.2 F720
;AFTER_LAYER_CHANGE
;0.2
G1 X109.228 Y97.605 F10800
G1 E2.5 F1500
M204 S800
;TYPE:Skirt/Brim
;WIDTH:0.42
G1 F954.706
G1 X110.161 Y96.668 E.04975
G1 X111.205 Y96.062 E.04542
G1 X112.011 Y95.8 E.03189
G1 X113.098 Y95.671 E.04119
G1 X137.14 Y95.681 E.90458
G1 X138.314 Y95.887 E.04485
G1 X139.53 Y96.45 E.05042
G1 X140.18 Y96.954 E.03095
G1 X140.757 Y97.586 E.0322
G1 X141.369 Y98.643 E.04595
G1 X141.628 Y99.448 E.03182
G1 X141.754 Y100.525 E.0408
G1 X141.754 Y105.475 E.18624
G1 X141.712 Y106.08 E.02282
G1 X141.534 Y106.906 E.03179
G1 X141.215 Y107.689 E.03181
G1 X140.765 Y108.405 E.03182
G1 X140.197 Y109.031 E.0318
G1 X139.531 Y109.549 E.03175
G1 X131.306 Y114 E.35187
G1 X130 Y114.329 E.05067
G1 X120 Y114.329 E.37625
G1 X118.694 Y114 E.05067
G1 X110.47 Y109.55 E.35182
G1 X109.544 Y108.772 E.04551
G1 X109.031 Y108.113 E.03142
G1 X108.64 Y107.378 E.03132
G1 X108.378 Y106.575 E.03178
G1 X108.246 Y105.475 E.04168
G1 X108.246 Y100.525 E.18624
G1 X108.367 Y99.47 E.03995
G1 X108.631 Y98.643 E.03266
G1 X109.198 Y97.657 E.04279
M204 S1000
G1 X109.524 Y97.845 F10800
M204 S800
G1 F954.706
G1 X110.378 Y96.976 E.04584
G1 X111.366 Y96.403 E.04297
G1 X112.109 Y96.164 E.02937
G1 X113.098 Y96.048 E.03747
G1 X137.107 Y96.057 E.90334
G1 X138.218 Y96.251 E.04243
G1 X139.313 Y96.759 E.04542
G1 X139.915 Y97.222 E.02857
G1 X140.449 Y97.803 E.02969
G1 X141.028 Y98.802 E.04344
G1 X141.264 Y99.545 E.02933
G1 X141.377 Y100.525 E.03712
G1 X141.377 Y105.475 E.18624
G1 X141.169 Y106.808 E.05076
G1 X140.873 Y107.53 E.02936
G1 X140.456 Y108.188 E.02931
G1 X139.931 Y108.765 E.02935
G1 X139.315 Y109.24 E.02927
G1 X131.127 Y113.668 E.35024
G1 X130 Y113.952 E.04373
G1 X120 Y113.952 E.37625
G1 X118.873 Y113.668 E.04373
G1 X110.687 Y109.241 E.35015
G1 X109.81 Y108.506 E.04305
G1 X109.34 Y107.897 E.02894
G1 X108.981 Y107.217 E.02893
G1 X108.741 Y106.475 E.02934
G1 X108.623 Y105.475 E.03789
G1 X108.623 Y100.525 E.18624
G1 X108.732 Y99.565 E.03635
G1 X108.972 Y98.802 E.03009
G1 X109.494 Y97.897 E.03931
M204 S1000
; printing object SmallBellow.stl id:0 copy 0
G1 E-2.5 F3600
G1 X129.234 Y107.271 F10800
G1 E2.5 F1500
M204 S800
;TYPE:Perimeter
;WIDTH:0.419999
G1 F954.707
G1 X129.213 Y107.354 E.00322
G1 X129.213 Y110.788 E.1292
G1 X120.787 Y110.788 E.31703
G1 X120.787 Y107.475 E.12465
G1 X120.773 Y107.229 E.00927
G1 X120.612 Y106.944 E.01232
G1 X120.439 Y106.831 E.00777
G1 X120.221 Y106.788 E.00836
G1 X113.134 Y106.788 E.26665
G1 X112.652 Y106.706 E.0184
G1 X112.258 Y106.478 E.01713
G1 X111.966 Y106.13 E.01709
G1 X111.81 Y105.702 E.01714
G1 X111.81 Y105.248 E.01708
G1 X111.966 Y104.82 E.01714
G1 X112.258 Y104.472 E.01709
G1 X112.652 Y104.244 E.01713
G1 X113.134 Y104.162 E.0184
G1 X136.866 Y104.162 E.89292
G1 X137.348 Y104.244 E.0184
G1 X137.742 Y104.472 E.01713
G1 X138.034 Y104.82 E.01709
G1 X138.19 Y105.248 E.01714
G1 X138.19 Y105.702 E.01708
G1 X138.034 Y106.13 E.01714
G1 X137.742 Y106.478 E.01709
G1 X137.348 Y106.706 E.01713
G1 X136.866 Y106.788 E.0184
G1 X129.779 Y106.788 E.26665
G1 X129.681 Y106.796 E.0037
G1 X129.388 Y106.944 E.01235
G1 X129.279 Y107.087 E.00677
G1 X129.248 Y107.213 E.00488
M204 S1000
G1 X129.59 Y107.354 F10800
M204 S800
;TYPE:External perimeter
G1 F954.707
G1 X129.59 Y111.165 E.14339
G1 X120.41 Y111.165 E.3454
G1 X120.41 Y107.354 E.14339
G1 X120.351 Y107.217 E.00561
G1 X120.221 Y107.165 E.00527
G1 X113.192 Y107.165 E.26447
G1 X112.665 Y107.1 E.01998
G1 X112.256 Y106.937 E.01657
G1 X111.911 Y106.664 E.01655
G1 X111.638 Y106.319 E.01655
G1 X111.475 Y105.91 E.01657
G1 X111.412 Y105.475 E.01654
G1 X111.475 Y105.04 E.01654
G1 X111.638 Y104.631 E.01657
G1 X111.911 Y104.286 E.01655
G1 X112.256 Y104.013 E.01655
G1 X112.665 Y103.85 E.01657
G1 X113.118 Y103.785 E.01722
G1 X136.956 Y103.791 E.89691
G1 X137.477 Y103.888 E.01994
G1 X137.865 Y104.097 E.01658
G1 X138.193 Y104.39 E.01655
G1 X138.424 Y104.764 E.01654
G1 X138.563 Y105.182 E.01657
G1 X138.576 Y105.622 E.01656
G1 X138.525 Y105.91 E.011
G1 X138.362 Y106.319 E.01657
G1 X138.089 Y106.664 E.01655
G1 X137.744 Y106.937 E.01655
G1 X137.335 Y107.1 E.01657
G1 X136.882 Y107.165 E.01722
G1 X129.779 Y107.165 E.26725
G1 X129.649 Y107.217 E.00527
G1 X129.614 Y107.298 E.00332
M204 S1000
G1 X129.204 Y107.457 F10800
G1 E-2.5 F3600
G1 X138.007 Y105.221 F10800
G1 E2.5 F1500
M204 S800
;TYPE:Solid infill
;WIDTH:0.425667
G1 F940.569
G1 X137.509 Y104.723 E.0269
G1 X137.385 Y104.636 E.00578
G1 X137.232 Y104.564 E.00646
G1 X137.069 Y104.521 E.00644
G1 X136.747 Y104.501 E.01232
G1 X137.857 Y105.612 E.05998
G1 X137.811 Y105.807 E.00765
G1 X137.708 Y106.004 E.00849
G1 X136.205 Y104.501 E.08118
G1 X135.664 Y104.501 E.02066
G1 X137.439 Y106.276 E.09587
G1 X137.232 Y106.386 E.00895
G1 X137.052 Y106.431 E.00709
G1 X135.123 Y104.501 E.10421
G1 X134.581 Y104.501 E.0207
G1 X136.529 Y106.449 E.10521
G1 X135.987 Y106.449 E.0207
G1 X134.04 Y104.501 E.10518
G1 X133.499 Y104.501 E.02066
G1 X135.446 Y106.449 E.10518
G1 X134.905 Y106.449 E.02066
G1 X132.958 Y104.501 E.10518
G1 X132.416 Y104.501 E.0207
G1 X134.363 Y106.449 E.10518
G1 X133.822 Y106.449 E.02066
G1 X131.875 Y104.501 E.10518
G1 X131.334 Y104.501 E.02066
G1 X133.281 Y106.449 E.10518
G1 X132.74 Y106.449 E.02066
G1 X130.792 Y104.501 E.10521
G1 X130.251 Y104.501 E.02066
G1 X132.198 Y106.449 E.10518
G1 X131.657 Y106.449 E.02066
G1 X129.71 Y104.501 E.10518
G1 X129.169 Y104.501 E.02066
G1 X131.116 Y106.449 E.10518
G1 X130.574 Y106.449 E.0207
G1 X128.627 Y104.501 E.10518
G1 X128.086 Y104.501 E.02066
G1 X130.033 Y106.449 E.10518
G1 X129.772 Y106.449 E.00997
G1 X129.531 Y106.488 E.00932
G1 X127.545 Y104.501 E.10729
G1 X127.003 Y104.501 E.0207
G1 X129.18 Y106.678 E.11758
G1 X128.98 Y106.925 E.01214
G1 X128.954 Y106.993 E.00278
G1 X126.462 Y104.501 E.13459
G1 X125.921 Y104.501 E.02066
G1 X128.874 Y107.454 E.15949
G1 X128.874 Y107.995 E.02066
G1 X125.38 Y104.501 E.18871
G1 X124.838 Y104.501 E.0207
G1 X128.874 Y108.537 E.21798
M73 P0 R72
G1 X128.874 Y109.078 E.02066
G1 X124.297 Y104.501 E.2472
G1 X123.756 Y104.501 E.02066
G1 X128.874 Y109.619 E.27642
G1 X128.874 Y110.161 E.0207
G1 X123.214 Y104.501 E.3057
G1 X122.673 Y104.501 E.02066
G1 X128.62 Y110.449 E.32122
G1 X128.079 Y110.449 E.02066
G1 X122.132 Y104.501 E.32122
G1 X121.591 Y104.501 E.02066
G1 X127.538 Y110.449 E.32122
G1 X126.996 Y110.449 E.0207
G1 X121.049 Y104.501 E.32122
G1 X120.508 Y104.501 E.02066
G1 X126.455 Y110.449 E.32122
G1 X125.914 Y110.449 E.02066
G1 X119.967 Y104.501 E.32122
G1 X119.425 Y104.501 E.0207
G1 X125.373 Y110.449 E.32125
G1 X124.831 Y110.449 E.0207
G1 X118.884 Y104.501 E.32122
G1 X118.343 Y104.501 E.02066
G1 X120.303 Y106.462 E.10589
G1 X120.57 Y106.515 E.0104
G1 X120.846 Y106.695 E.01258
G1 X121.02 Y106.925 E.01101
G1 X121.105 Y107.153 E.00929
G1 X121.119 Y107.277 E.00477
G1 X124.29 Y110.449 E.17129
G1 X123.749 Y110.449 E.02066
G1 X121.126 Y107.826 E.14167
G1 X121.126 Y108.368 E.0207
G1 X123.207 Y110.449 E.11239
G1 X122.666 Y110.449 E.02066
G1 X121.126 Y108.909 E.08317
G1 X121.126 Y109.45 E.02066
G1 X122.125 Y110.449 E.05396
G1 X121.584 Y110.449 E.02066
G1 X120.957 Y109.822 E.03386
M204 S1000
G1 E-2.5 F3600
G1 X119.918 Y106.618 F10800
G1 E2.5 F1500
M204 S800
G1 F940.569
G1 X117.802 Y104.501 E.11431
G1 X117.26 Y104.501 E.0207
G1 X119.207 Y106.449 E.10518
G1 X118.666 Y106.449 E.02066
G1 X116.719 Y104.501 E.10518
G1 X116.178 Y104.501 E.02066
G1 X118.125 Y106.449 E.10518
G1 X117.584 Y106.449 E.02066
G1 X115.636 Y104.501 E.10521
G1 X115.095 Y104.501 E.02066
G1 X117.042 Y106.449 E.10518
G1 X116.501 Y106.449 E.02066
G1 X114.554 Y104.501 E.10518
G1 X114.013 Y104.501 E.02066
M73 Q0 S72
G1 X115.96 Y106.449 E.10518
G1 X115.418 Y106.449 E.0207
G1 X113.471 Y104.501 E.10518
G1 X113.149 Y104.501 E.0123
G1 X112.948 Y104.519 E.00771
G1 X114.877 Y106.449 E.10421
G1 X114.336 Y106.449 E.02066
G1 X112.561 Y104.674 E.09587
G1 X112.358 Y104.852 E.01031
G1 X112.292 Y104.946 E.00439
G1 X113.795 Y106.449 E.08118
G1 X113.253 Y106.449 E.0207
G1 X112.143 Y105.338 E.05998
G1 X112.131 Y105.475 E.00525
G1 X112.145 Y105.643 E.00644
G1 X112.189 Y105.807 E.00648
G1 X112.261 Y105.96 E.00646
G1 X112.348 Y106.085 E.00582
G1 X112.846 Y106.582 E.02687
M204 S1000
G1 E-2.5 F3600
G1 X137.633 Y101.591 F10800
G1 E2.5 F1500
M204 S800
;TYPE:Perimeter
;WIDTH:0.419999
M73 Q1 S72
G1 F954.707
G1 X137.348 Y101.756 E.01239
G1 X136.866 Y101.838 E.0184
G1 X113.134 Y101.838 E.89292
G1 X112.652 Y101.756 E.0184
M73 P1 R72
G1 X112.258 Y101.528 E.01713
G1 X111.966 Y101.18 E.01709
G1 X111.81 Y100.752 E.01714
G1 X111.81 Y100.298 E.01708
G1 X111.966 Y99.87 E.01714
G1 X112.258 Y99.522 E.01709
G1 X112.652 Y99.294 E.01713
G1 X113.134 Y99.212 E.0184
G1 X136.866 Y99.212 E.89292
G1 X137.348 Y99.294 E.0184
G1 X137.742 Y99.522 E.01713
G1 X138.034 Y99.87 E.01709
G1 X138.19 Y100.298 E.01714
G1 X138.19 Y100.752 E.01708
G1 X138.034 Y101.18 E.01714
G1 X137.742 Y101.528 E.01709
G1 X137.685 Y101.561 E.00248
M204 S1000
G1 X137.945 Y101.829 F10800
M204 S800
;TYPE:External perimeter
G1 F954.707
G1 X137.744 Y101.987 E.00962
G1 X137.335 Y102.15 E.01657
G1 X136.882 Y102.215 E.01722
G1 X113.192 Y102.215 E.89134
G1 X112.665 Y102.15 E.01998
G1 X112.256 Y101.987 E.01657
G1 X111.911 Y101.714 E.01655
G1 X111.638 Y101.369 E.01655
G1 X111.475 Y100.96 E.01657
G1 X111.412 Y100.525 E.01654
G1 X111.475 Y100.09 E.01654
G1 X111.638 Y99.681 E.01657
G1 X111.911 Y99.336 E.01655
G1 X112.256 Y99.063 E.01655
G1 X112.665 Y98.9 E.01657
G1 X113.118 Y98.835 E.01722
G1 X136.956 Y98.841 E.89691
G1 X137.477 Y98.938 E.01994
G1 X137.865 Y99.147 E.01658
G1 X138.193 Y99.44 E.01655
G1 X138.424 Y99.814 E.01654
G1 X138.563 Y100.232 E.01657
G1 X138.576 Y100.672 E.01656
G1 X138.525 Y100.96 E.011
G1 X138.362 Y101.369 E.01657
G1 X138.089 Y101.714 E.01655
G1 X137.992 Y101.792 E.00468
M204 S1000
G1 X137.702 Y101.748 F10800
G1 X138.007 Y100.271
M204 S800
;TYPE:Solid infill
;WIDTH:0.425667
G1 F940.569
G1 X137.509 Y99.773 E.0269
G1 X137.385 Y99.686 E.00578
G1 X137.232 Y99.614 E.00646
G1 X137.069 Y99.571 E.00644
G1 X136.747 Y99.551 E.01232
G1 X137.857 Y100.662 E.05998
G1 X137.811 Y100.857 E.00765
G1 X137.708 Y101.054 E.00849
G1 X136.205 Y99.551 E.08118
G1 X135.664 Y99.551 E.02066
G1 X137.439 Y101.326 E.09587
G1 X137.232 Y101.436 E.00895
G1 X137.052 Y101.481 E.00709
G1 X135.123 Y99.551 E.10421
G1 X134.581 Y99.551 E.0207
G1 X136.529 Y101.499 E.10521
G1 X135.987 Y101.499 E.0207
G1 X134.04 Y99.551 E.10518
G1 X133.499 Y99.551 E.02066
G1 X135.446 Y101.499 E.10518
G1 X134.905 Y101.499 E.02066
G1 X132.958 Y99.551 E.10518
G1 X132.416 Y99.551 E.0207
G1 X134.363 Y101.499 E.10518
G1 X133.822 Y101.499 E.02066
G1 X131.875 Y99.551 E.10518
G1 X131.334 Y99.551 E.02066
G1 X133.281 Y101.499 E.10518
G1 X132.74 Y101.499 E.02066
G1 X130.792 Y99.551 E.10521
G1 X130.251 Y99.551 E.02066
G1 X132.198 Y101.499 E.10518
G1 X131.657 Y101.499 E.02066
G1 X129.71 Y99.551 E.10518
G1 X129.169 Y99.551 E.02066
G1 X131.116 Y101.499 E.10518
G1 X130.574 Y101.499 E.0207
G1 X128.627 Y99.551 E.10518
G1 X128.086 Y99.551 E.02066
G1 X130.033 Y101.499 E.10518
G1 X129.492 Y101.499 E.02066
G1 X127.545 Y99.551 E.10518
G1 X127.003 Y99.551 E.0207
G1 X128.951 Y101.499 E.10521
G1 X128.409 Y101.499 E.0207
G1 X126.462 Y99.551 E.10518
G1 X125.921 Y99.551 E.02066
G1 X127.868 Y101.499 E.10518
G1 X127.327 Y101.499 E.02066
G1 X125.38 Y99.551 E.10518
G1 X124.838 Y99.551 E.0207
G1 X126.785 Y101.499 E.10518
G1 X126.244 Y101.499 E.02066
G1 X124.297 Y99.551 E.10518
G1 X123.756 Y99.551 E.02066
G1 X125.703 Y101.499 E.10518
G1 X125.162 Y101.499 E.02066
G1 X123.214 Y99.551 E.10521
G1 X122.673 Y99.551 E.02066
G1 X124.62 Y101.499 E.10518
G1 X124.079 Y101.499 E.02066
G1 X122.132 Y99.551 E.10518
G1 X121.591 Y99.551 E.02066
G1 X123.538 Y101.499 E.10518
G1 X122.996 Y101.499 E.0207
G1 X121.049 Y99.551 E.10518
G1 X120.508 Y99.551 E.02066
G1 X122.455 Y101.499 E.10518
G1 X121.914 Y101.499 E.02066
G1 X119.967 Y99.551 E.10518
G1 X119.425 Y99.551 E.0207
G1 X121.373 Y101.499 E.10521
G1 X120.831 Y101.499 E.0207
G1 X118.884 Y99.551 E.10518
G1 X118.343 Y99.551 E.02066
G1 X120.29 Y101.499 E.10518
G1 X119.749 Y101.499 E.02066
G1 X117.802 Y99.551 E.10518
G1 X117.26 Y99.551 E.0207
G1 X119.207 Y101.499 E.10518
G1 X118.666 Y101.499 E.02066
G1 X116.719 Y99.551 E.10518
G1 X116.178 Y99.551 E.02066
G1 X118.125 Y101.499 E.10518
G1 X117.584 Y101.499 E.02066
G1 X115.636 Y99.551 E.10521
G1 X115.095 Y99.551 E.02066
G1 X117.042 Y101.499 E.10518
G1 X116.501 Y101.499 E.02066
G1 X114.554 Y99.551 E.10518
G1 X114.013 Y99.551 E.02066
G1 X115.96 Y101.499 E.10518
G1 X115.418 Y101.499 E.0207
G1 X113.471 Y99.551 E.10518
G1 X113.149 Y99.551 E.0123
G1 X112.948 Y99.569 E.00771
G1 X114.877 Y101.499 E.10421
G1 X114.336 Y101.499 E.02066
G1 X112.561 Y99.724 E.09587
G1 X112.358 Y99.902 E.01031
G1 X112.292 Y99.996 E.00439
G1 X113.795 Y101.499 E.08118
G1 X113.253 Y101.499 E.0207
G1 X112.143 Y100.388 E.05998
G1 X112.131 Y100.521 E.0051
G1 X112.168 Y100.775 E.0098
G1 X112.263 Y101.013 E.00979
G1 X112.348 Y101.135 E.00568
G1 X112.846 Y101.632 E.02687
M204 S1000
; stop printing object SmallBellow.stl id:0 copy 0
M106 S76.5
;LAYER_CHANGE
;Z:0.5
;HEIGHT:0.3
;BEFORE_LAYER_CHANGE
G92 E0.0
;0.5


G1 E-2.5 F3600
G1 Z.5 F720
;AFTER_LAYER_CHANGE
;0.5
G1 X108.246 Y101.632 F10800
G1 E2.5 F1500
;TYPE:Skirt/Brim
;WIDTH:0.42
G1 F674.879
G1 X108.246 Y100.525 E.05892
G1 X108.367 Y99.47 E.05652
G1 X108.631 Y98.643 E.04621
G1 X109.228 Y97.605 E.06373
G1 X110.161 Y96.668 E.07038
G1 X111.205 Y96.062 E.06425
G1 X112.011 Y95.8 E.04511
G1 X113.098 Y95.671 E.05826
G1 X137.14 Y95.681 E1.27965
G1 X138.314 Y95.887 E.06344
G1 X139.53 Y96.45 E.07132
G1 X140.18 Y96.954 E.04378
G1 X140.757 Y97.586 E.04555
G1 X141.369 Y98.643 E.06501
G1 X141.628 Y99.448 E.04501
G1 X141.754 Y100.525 E.05772
G1 X141.754 Y105.475 E.26347
G1 X141.712 Y106.08 E.03228
G1 X141.534 Y106.906 E.04497
G1 X141.215 Y107.689 E.045
G1 X140.765 Y108.405 E.04501
G1 X140.197 Y109.031 E.04499
G1 X139.531 Y109.549 E.04491
G1 X131.306 Y114 E.49777
G1 X130 Y114.329 E.07168
G1 X120 Y114.329 E.53226
G1 X118.694 Y114 E.07168
G1 X110.47 Y109.55 E.4977
G1 X109.544 Y108.772 E.06437
G1 X109.031 Y108.113 E.04445
G1 X108.64 Y107.378 E.04431
G1 X108.378 Y106.575 E.04496
G1 X108.246 Y105.475 E.05897
G1 X108.246 Y101.692 E.20135
G1 X108.623 Y101.692 F10800
G1 F674.879
G1 X108.623 Y100.525 E.06211
G1 X108.732 Y99.565 E.05143
G1 X108.972 Y98.802 E.04257
G1 X109.537 Y97.821 E.06026
G1 X110.378 Y96.976 E.06345
G1 X111.366 Y96.403 E.06079
G1 X112.109 Y96.164 E.04154
G1 X113.098 Y96.048 E.053
G1 X137.107 Y96.057 E1.2779
G1 X138.218 Y96.251 E.06003
G1 X139.313 Y96.759 E.06425
G1 X139.915 Y97.222 E.04042
