; generated by PrusaSlicer 2.6.0+win64 on 2023-10-02 at 19:33:54 UTC

; 

; external perimeters extrusion width = 0.40mm
; perimeters extrusion width = 0.40mm
; infill extrusion width = 0.40mm
; solid infill extrusion width = 0.45mm
; top infill extrusion width = 0.40mm
; support material extrusion width = 0.35mm
; first layer extrusion width = 0.42mm

; external perimeters extrusion width = 0.40mm
; perimeters extrusion width = 0.40mm
; infill extrusion width = 0.40mm
; solid infill extrusion width = 0.45mm
; top infill extrusion width = 0.40mm
; support material extrusion width = 0.35mm
; first layer extrusion width = 0.42mm

M73 P0 R195
M73 Q0 S197
M201 X1000 Y1000 Z200 E5000 ; sets maximum accelerations, mm/sec^2
M203 X200 Y200 Z12 E120 ; sets maximum feedrates, mm / sec
M204 S1250 T1250 ; sets acceleration (S) and retract acceleration (R), mm/sec^2
M205 X8.00 Y8.00 Z0.40 E4.50 ; sets the jerk limits, mm/sec
M205 S0 T0 ; sets the minimum extruding and travel feed rate, mm/sec
;TYPE:Custom
M862.3 P "MK3S" ; printer model check
M862.1 P0.4 ; nozzle diameter check
M115 U3.10.0 ; tell printer latest fw version
G90 ; use absolute coordinates
M83 ; extruder relative mode
M104 S235 ; set extruder temp
M140 S30 ; set bed temp
M190 S30 ; wait for bed temp
M109 S235 ; wait for extruder temp
G28 W ; home all without mesh bed level
G80 ; mesh bed leveling
G1 Y-3.0 F1000.0 ; go outside print area
G92 E0.0
G1 X60.0 E9.0 F1000.0 ; intro line
G1 X100.0 E12.5 F1000.0 ; intro line
G92 E0.0
M221 S95

; Don't change E values below. Excessive value can damage the printer.
M907 E430 ; set extruder motor current
G21 ; set units to millimeters
G90 ; use absolute coordinates
M83 ; use relative distances for extrusion
M900 K0
M107
;LAYER_CHANGE
;Z:0.2
;HEIGHT:0.2
;BEFORE_LAYER_CHANGE
G92 E0.0
;0.2


G1 Z.2 F9000
;AFTER_LAYER_CHANGE
;0.2
G1 X85.459 Y92.783
M204 S1000
;TYPE:Skirt/Brim
;WIDTH:0.42
G1 F600
G1 X86.453 Y92.206 E.03964
G1 X87.196 Y91.969 E.0269
G1 X88.178 Y91.855 E.0341
G1 X112.189 Y91.864 E.82813
G1 X112.904 Y91.953 E.02485
G1 X148.949 Y100.684 E1.27913
G1 X150.127 Y101.372 E.04705
G1 X150.767 Y102.994 E.06014
G1 X150.767 Y152.994 E1.72449
G1 X150.375 Y154.301 E.04706
G1 X149.329 Y155.178 E.04708
G1 X147.974 Y155.335 E.04705
G1 X146.889 Y154.838 E.04116
G1 X85.331 Y104.734 E2.73749
G1 X84.626 Y103.995 E.03523
G1 X84.054 Y103.006 E.0394
G1 X83.819 Y102.267 E.02675
G1 X83.704 Y101.282 E.0342
G1 X83.704 Y96.332 E.17072
G1 X83.815 Y95.363 E.03364
G1 X84.054 Y94.609 E.02728
G1 X84.622 Y93.623 E.03925
G1 X85.417 Y92.825 E.03885
; printing object SmallBellow.stl id:0 copy 0
G1 X109.062 Y102.217 F9000
;TYPE:Perimeter
;WIDTH:0.419999
G1 F600
G1 X104.86 Y102.217 E.14493
G1 X104.497 Y102.29 E.01277
G1 X104.21 Y102.477 E.01181
G1 X104.028 Y102.717 E.01039
G1 X103.94 Y102.953 E.00869
G1 X103.917 Y103.16 E.00718
G1 X103.917 Y106.217 E.10543
G1 X96.246 Y106.217 E.26457
G1 X96.246 Y103.282 E.10123
G1 X96.223 Y102.953 E.01137
G1 X96.135 Y102.717 E.00869
G1 X95.953 Y102.477 E.01039
G1 X95.666 Y102.29 E.01181
G1 X95.303 Y102.217 E.01277
G1 X88.273 Y102.217 E.24246
G1 X87.863 Y102.157 E.01429
G1 X87.583 Y101.995 E.01116
G1 X87.375 Y101.747 E.01116
G1 X87.264 Y101.443 E.01116
G1 X87.264 Y101.12 E.01114
G1 X87.375 Y100.816 E.01116
G1 X87.583 Y100.568 E.01116
G1 X87.863 Y100.406 E.01116
G1 X88.232 Y100.346 E.01289
G1 X111.89 Y100.346 E.81596
G1 X112.222 Y100.385 E.01153
M73 P0 R194
G1 X112.514 Y100.522 E.01112
G1 X112.742 Y100.749 E.0111
G1 X112.878 Y101.041 E.01111
G1 X112.899 Y101.443 E.01388
G1 X112.788 Y101.747 E.01116
G1 X112.58 Y101.995 E.01116
G1 X112.3 Y102.157 E.01116
G1 X111.931 Y102.217 E.01289
G1 X109.122 Y102.217 E.09688
G1 X109.062 Y102.595 F9000
G1 F600
G1 X104.86 Y102.595 E.14493
G1 X104.762 Y102.603 E.00339
G1 X104.47 Y102.751 E.01129
G1 X104.361 Y102.894 E.0062
G1 X104.294 Y103.16 E.00946
G1 X104.294 Y106.595 E.11847
G1 X95.869 Y106.595 E.29058
G1 X95.869 Y103.282 E.11426
G1 X95.855 Y103.036 E.0085
G1 X95.693 Y102.751 E.01131
G1 X95.52 Y102.638 E.00713
G1 X95.303 Y102.595 E.00763
G1 X88.216 Y102.595 E.24443
G1 X87.733 Y102.513 E.0169
G1 X87.339 Y102.285 E.0157
G1 X87.047 Y101.937 E.01567
G1 X86.891 Y101.509 E.01571
G1 X86.891 Y101.054 E.01569
G1 X87.047 Y100.627 E.01568
G1 X87.339 Y100.278 E.01569
G1 X87.733 Y100.051 E.01568
G1 X88.216 Y99.969 E.0169
G1 X111.947 Y99.969 E.81847
G1 X112.43 Y100.051 E.0169
G1 X112.823 Y100.278 E.01565
G1 X113.116 Y100.627 E.01572
G1 X113.272 Y101.054 E.01568
G1 X113.281 Y101.395 E.01177
G1 X113.272 Y101.509 E.00394
G1 X113.116 Y101.937 E.01571
G1 X112.823 Y102.285 E.01569
G1 X112.43 Y102.513 E.01567
G1 X111.947 Y102.595 E.0169
G1 X109.122 Y102.595 E.09743
G1 X109.062 Y102.972 F9000
;TYPE:External perimeter
G1 F600
G1 X104.86 Y102.972 E.14493
G1 X104.73 Y103.024 E.00483
G1 X104.671 Y103.16 E.00511
G1 X104.671 Y106.972 E.13147
G1 X95.491 Y106.972 E.31662
G1 X95.491 Y103.16 E.13147
G1 X95.433 Y103.024 E.0051
G1 X95.303 Y102.972 E.00483
G1 X88.273 Y102.972 E.24246
G1 X87.746 Y102.906 E.01832
G1 X87.337 Y102.744 E.01517
G1 X86.992 Y102.471 E.01517
G1 X86.719 Y102.126 E.01517
G1 X86.557 Y101.717 E.01517
G1 X86.493 Y101.282 E.01516
G1 X86.557 Y100.846 E.0152
G1 X86.719 Y100.437 E.01517
G1 X86.992 Y100.092 E.01517
G1 X87.337 Y99.819 E.01517
G1 X87.746 Y99.657 E.01517
G1 X88.199 Y99.592 E.01578
G1 X111.89 Y99.592 E.81709
G1 X112.037 Y99.598 E.00507
G1 X112.559 Y99.695 E.01831
G1 X112.946 Y99.904 E.01517
G1 X113.275 Y100.196 E.01517
G1 X113.506 Y100.571 E.01519
G1 X113.644 Y100.988 E.01515
G1 X113.657 Y101.428 E.01518
G1 X113.606 Y101.717 E.01012
G1 X113.444 Y102.126 E.01517
G1 X113.171 Y102.471 E.01517
G1 X112.826 Y102.744 E.01517
G1 X112.417 Y102.906 E.01517
G1 X111.964 Y102.972 E.01579
G1 X109.122 Y102.972 E.09802
G1 X108.86 Y102.626 F9000
G1 X112.92 Y101.121
;TYPE:Internal infill
;WIDTH:0.42
G1 F600
G1 X112.482 Y100.684 E.02134
G1 X112.25 Y100.55 E.00924
G1 X112.117 Y100.514 E.00475
G1 X111.754 Y100.497 E.01253
G1 X112.729 Y101.472 E.04756
G1 X112.657 Y101.67 E.00727
G1 X112.535 Y101.82 E.00667
G1 X111.212 Y100.497 E.06453
G1 X110.671 Y100.497 E.01866
G1 X112.195 Y102.021 E.07433
G1 X112.118 Y102.049 E.00283
G1 X111.698 Y102.066 E.0145
G1 X110.129 Y100.497 E.07653
G1 X109.588 Y100.497 E.01866
G1 X111.156 Y102.066 E.0765
G1 X110.615 Y102.066 E.01866
G1 X109.046 Y100.497 E.07653
G1 X108.504 Y100.497 E.01869
G1 X110.073 Y102.066 E.07653
G1 X109.531 Y102.066 E.01869
G1 X107.963 Y100.497 E.0765
G1 X107.421 Y100.497 E.01869
G1 X108.99 Y102.066 E.07653
G1 X108.448 Y102.066 E.01869
G1 X106.88 Y100.497 E.0765
G1 X106.338 Y100.497 E.01869
G1 X107.907 Y102.066 E.07653
G1 X107.365 Y102.066 E.01869
G1 X105.796 Y100.497 E.07653
G1 X105.255 Y100.497 E.01866
G1 X106.823 Y102.066 E.0765
G1 X106.282 Y102.066 E.01866
G1 X104.713 Y100.497 E.07653
G1 X104.172 Y100.497 E.01866
G1 X105.74 Y102.066 E.0765
G1 X105.199 Y102.066 E.01866
G1 X103.63 Y100.497 E.07653
G1 X103.088 Y100.497 E.01869
G1 X104.673 Y102.082 E.07731
G1 X104.441 Y102.15 E.00834
G1 X104.295 Y102.245 E.00601
G1 X102.547 Y100.497 E.08526
G1 X102.005 Y100.497 E.01869
G1 X104.006 Y102.499 E.09762
G1 X103.895 Y102.646 E.00635
G1 X103.818 Y102.852 E.00758
G1 X101.464 Y100.497 E.11484
M73 Q0 S196
G1 X100.922 Y100.497 E.01869
G1 X103.766 Y103.341 E.13872
G1 X103.766 Y103.883 E.01869
G1 X100.38 Y100.497 E.16515
G1 X99.839 Y100.497 E.01866
G1 X103.766 Y104.424 E.19154
G1 X103.766 Y104.966 E.01869
G1 X99.297 Y100.497 E.21798
G1 X98.756 Y100.497 E.01866
G1 X103.766 Y105.508 E.24439
G1 X103.766 Y106.049 E.01866
G1 X98.214 Y100.497 E.2708
G1 X97.672 Y100.497 E.01869
G1 X103.241 Y106.066 E.27163
G1 X102.699 Y106.066 E.01869
G1 X97.131 Y100.497 E.27161
G1 X96.589 Y100.497 E.01869
G1 X102.158 Y106.066 E.27163
G1 X101.616 Y106.066 E.01869
G1 X96.048 Y100.497 E.27161
G1 X95.506 Y100.497 E.01869
G1 X101.075 Y106.066 E.27163
G1 X100.533 Y106.066 E.01869
G1 X94.964 Y100.497 E.27163
G1 X94.423 Y100.497 E.01866
G1 X99.991 Y106.066 E.27161
G1 X99.45 Y106.066 E.01866
G1 X96.379 Y102.995 E.14979
G1 X96.397 Y103.162 E.00579
G1 X96.397 Y103.555 E.01355
G1 X98.908 Y106.066 E.12248
G1 X98.367 Y106.066 E.01866
G1 X96.397 Y104.097 E.09606
G1 X96.397 Y104.638 E.01866
G1 X97.825 Y106.066 E.06965
G1 X97.283 Y106.066 E.01869
G1 X96.397 Y105.18 E.04322
G1 X96.397 Y105.721 E.01866
G1 X96.912 Y106.236 E.02512
G1 X95.765 Y102.381 F9000
G1 F600
G1 X93.881 Y100.497 E.09189
G1 X93.34 Y100.497 E.01866
G1 X94.908 Y102.066 E.0765
G1 X94.367 Y102.066 E.01866
G1 X92.798 Y100.497 E.07653
G1 X92.256 Y100.497 E.01869
G1 X93.825 Y102.066 E.07653
G1 X93.283 Y102.066 E.01869
G1 X91.715 Y100.497 E.0765
G1 X91.173 Y100.497 E.01869
G1 X92.742 Y102.066 E.07653
G1 X92.2 Y102.066 E.01869
G1 X90.632 Y100.497 E.0765
G1 X90.09 Y100.497 E.01869
G1 X91.659 Y102.066 E.07653
G1 X91.117 Y102.066 E.01869
G1 X89.548 Y100.497 E.07653
G1 X89.007 Y100.497 E.01866
G1 X90.575 Y102.066 E.0765
G1 X90.034 Y102.066 E.01866
G1 X88.465 Y100.497 E.07653
G1 X88.239 Y100.497 E.00779
G1 X87.963 Y100.537 E.00962
G1 X89.492 Y102.066 E.07458
G1 X88.951 Y102.066 E.01866
G1 X87.63 Y100.745 E.06443
G1 X87.506 Y100.892 E.00663
G1 X87.434 Y101.091 E.0073
G1 X88.409 Y102.066 E.04756
G1 X88.045 Y102.049 E.01257
G1 X87.792 Y101.957 E.00928
G1 X87.584 Y101.783 E.00935
G1 X87.26 Y101.459 E.0158
G1 X86.69 Y101.612 F9000
G1 X90.408 Y99.747
G1 X93.868 Y97.866
G1 X88.465 Y94.797
G1 X98.411 Y94.797
G1 X98.411 Y95.396
;TYPE:Perimeter
;WIDTH:0.419999
G1 F600
G1 X111.89 Y95.396 E.46489
G1 X112.222 Y95.435 E.01153
G1 X112.514 Y95.572 E.01112
G1 X112.742 Y95.799 E.0111
G1 X112.878 Y96.091 E.01111
G1 X112.906 Y96.412 E.01111
G1 X112.899 Y96.493 E.0028
G1 X112.788 Y96.797 E.01116
G1 X112.58 Y97.045 E.01116
G1 X112.3 Y97.207 E.01116
G1 X111.931 Y97.267 E.01289
G1 X88.273 Y97.267 E.81596
G1 X87.863 Y97.207 E.01429
G1 X87.583 Y97.045 E.01116
G1 X87.375 Y96.797 E.01116
G1 X87.264 Y96.493 E.01116
G1 X87.264 Y96.17 E.01114
G1 X87.375 Y95.866 E.01116
G1 X87.583 Y95.618 E.01116
G1 X87.863 Y95.456 E.01116
G1 X88.232 Y95.396 E.01289
G1 X98.351 Y95.396 E.349
G1 X98.411 Y95.019 F9000
G1 F600
G1 X111.947 Y95.019 E.46685
G1 X112.43 Y95.101 E.0169
G1 X112.823 Y95.328 E.01565
G1 X113.116 Y95.677 E.01572
G1 X113.272 Y96.104 E.01568
G1 X113.272 Y96.559 E.01569
G1 X113.116 Y96.987 E.01571
G1 X112.823 Y97.335 E.01569
G1 X112.43 Y97.563 E.01567
G1 X111.947 Y97.645 E.0169
G1 X88.216 Y97.645 E.81847
G1 X87.733 Y97.563 E.0169
G1 X87.339 Y97.335 E.0157
G1 X87.047 Y96.987 E.01567
G1 X86.891 Y96.559 E.01571
G1 X86.891 Y96.104 E.01569
G1 X87.047 Y95.677 E.01568
G1 X87.339 Y95.328 E.01569
G1 X87.733 Y95.101 E.01568
G1 X88.216 Y95.019 E.0169
G1 X98.351 Y95.019 E.34955
G1 X98.411 Y94.642 F9000
;TYPE:External perimeter
G1 F600
G1 X112.037 Y94.648 E.46996
G1 X112.559 Y94.745 E.01831
G1 X112.946 Y94.954 E.01517
G1 X113.275 Y95.246 E.01517
G1 X113.506 Y95.621 E.01519
G1 X113.644 Y96.038 E.01515
G1 X113.657 Y96.478 E.01518
G1 X113.606 Y96.767 E.01012
G1 X113.444 Y97.176 E.01517
G1 X113.171 Y97.521 E.01517
G1 X112.826 Y97.794 E.01517
G1 X112.417 Y97.956 E.01517
G1 X111.964 Y98.022 E.01579
G1 X88.273 Y98.022 E.81709
G1 X87.746 Y97.956 E.01832
G1 X87.337 Y97.794 E.01517
G1 X86.992 Y97.521 E.01517
G1 X86.719 Y97.176 E.01517
G1 X86.557 Y96.767 E.01517
G1 X86.493 Y96.332 E.01516
G1 X86.557 Y95.896 E.0152
G1 X86.719 Y95.487 E.01517
G1 X86.992 Y95.142 E.01517
G1 X87.337 Y94.869 E.01517
G1 X87.746 Y94.707 E.01517
G1 X88.199 Y94.642 E.01578
G1 X98.351 Y94.642 E.35014
G1 X98.611 Y94.988 F9000
G1 X87.255 Y96.504
;TYPE:Internal infill
;WIDTH:0.42
G1 F600
G1 X87.68 Y96.929 E.02073
G1 X87.913 Y97.063 E.00927
G1 X88.046 Y97.099 E.00475
G1 X88.409 Y97.116 E.01253
G1 X87.434 Y96.141 E.04756
G1 X87.506 Y95.942 E.0073
G1 X87.63 Y95.795 E.00663
G1 X88.951 Y97.116 E.06443
G1 X89.492 Y97.116 E.01866
G1 X87.963 Y95.587 E.07458
G1 X88.239 Y95.547 E.00962
G1 X88.465 Y95.547 E.00779
G1 X90.034 Y97.116 E.07653
G1 X90.575 Y97.116 E.01866
G1 X89.007 Y95.547 E.0765
G1 X89.548 Y95.547 E.01866
G1 X91.117 Y97.116 E.07653
G1 X91.659 Y97.116 E.01869
G1 X90.09 Y95.547 E.07653
G1 X90.632 Y95.547 E.01869
G1 X92.2 Y97.116 E.0765
G1 X92.742 Y97.116 E.01869
G1 X91.173 Y95.547 E.07653
G1 X91.715 Y95.547 E.01869
G1 X93.283 Y97.116 E.0765
G1 X93.825 Y97.116 E.01869
G1 X92.256 Y95.547 E.07653
G1 X92.798 Y95.547 E.01869
G1 X94.367 Y97.116 E.07653
G1 X94.908 Y97.116 E.01866
G1 X93.34 Y95.547 E.0765
G1 X93.881 Y95.547 E.01866
G1 X95.45 Y97.116 E.07653
G1 X95.991 Y97.116 E.01866
G1 X94.423 Y95.547 E.0765
G1 X94.964 Y95.547 E.01866
G1 X96.533 Y97.116 E.07653
G1 X97.075 Y97.116 E.01869
G1 X95.506 Y95.547 E.07653
G1 X96.048 Y95.547 E.01869
G1 X97.616 Y97.116 E.0765
G1 X98.158 Y97.116 E.01869
G1 X96.589 Y95.547 E.07653
G1 X97.131 Y95.547 E.01869
G1 X98.699 Y97.116 E.0765
G1 X99.241 Y97.116 E.01869
G1 X97.672 Y95.547 E.07653
G1 X98.214 Y95.547 E.01869
G1 X99.783 Y97.116 E.07653
G1 X100.324 Y97.116 E.01866
G1 X98.756 Y95.547 E.0765
G1 X99.297 Y95.547 E.01866
G1 X100.866 Y97.116 E.07653
G1 X101.407 Y97.116 E.01866
G1 X99.839 Y95.547 E.0765
G1 X100.38 Y95.547 E.01866
M73 P0 R193
G1 X101.949 Y97.116 E.07653
G1 X102.491 Y97.116 E.01869
G1 X100.922 Y95.547 E.07653
G1 X101.464 Y95.547 E.01869
G1 X103.032 Y97.116 E.0765
G1 X103.574 Y97.116 E.01869
G1 X102.005 Y95.547 E.07653
G1 X102.547 Y95.547 E.01869
G1 X104.115 Y97.116 E.0765
G1 X104.657 Y97.116 E.01869
G1 X103.088 Y95.547 E.07653
G1 X103.63 Y95.547 E.01869
G1 X105.199 Y97.116 E.07653
G1 X105.74 Y97.116 E.01866
G1 X104.172 Y95.547 E.0765
G1 X104.713 Y95.547 E.01866
G1 X106.282 Y97.116 E.07653
G1 X106.823 Y97.116 E.01866
G1 X105.255 Y95.547 E.0765
G1 X105.796 Y95.547 E.01866
G1 X107.365 Y97.116 E.07653
G1 X107.907 Y97.116 E.01869
G1 X106.338 Y95.547 E.07653
G1 X106.88 Y95.547 E.01869
G1 X108.448 Y97.116 E.0765
G1 X108.99 Y97.116 E.01869
G1 X107.421 Y95.547 E.07653
G1 X107.963 Y95.547 E.01869
G1 X109.531 Y97.116 E.0765
G1 X110.073 Y97.116 E.01869
G1 X108.504 Y95.547 E.07653
G1 X109.046 Y95.547 E.01869
G1 X110.615 Y97.116 E.07653
G1 X111.156 Y97.116 E.01866
G1 X109.588 Y95.547 E.0765
G1 X110.129 Y95.547 E.01866
G1 X111.698 Y97.116 E.07653
G1 X111.924 Y97.116 E.00779
G1 X112.2 Y97.077 E.00961
G1 X110.671 Y95.547 E.0746
G1 X111.212 Y95.547 E.01866
G1 X112.533 Y96.868 E.06443
G1 X112.657 Y96.721 E.00663
G1 X112.729 Y96.522 E.0073
G1 X111.754 Y95.547 E.04756
G1 X112.117 Y95.564 E.01253
G1 X112.25 Y95.6 E.00475
G1 X112.482 Y95.734 E.00924
G1 X112.918 Y96.169 E.02124
; stop printing object SmallBellow.stl id:0 copy 0
; printing object support_triangle.stl id:1 copy 0
G1 X117.431 Y103.605 F9000
G1 X114.564 Y103.606
G1 X136.349 Y134.727
G1 X136.33 Y134.74
;TYPE:External perimeter
;WIDTH:0.421504
G1 F600
G1 X114.729 Y103.88 E1.30437
;WIDTH:0.467786
G1 X114.704 Y103.804 E.00311
;WIDTH:0.514067
G1 X114.679 Y103.728 E.00345
;WIDTH:0.560348
G1 X114.654 Y103.652 E.00379
G1 X114.731 Y103.629 E.0038
;WIDTH:0.5138
G1 X114.807 Y103.606 E.00342
;WIDTH:0.467251
G1 X114.884 Y103.582 E.00313
;WIDTH:0.420702
G1 X147.375 Y103.583 E1.12269
;WIDTH:0.461754
G1 X147.761 Y103.623 E.01487
G1 X147.801 Y104.009 E.01487
;WIDTH:0.42
G1 X147.801 Y149.984 E1.58567
G1 X147.793 Y150.395 E.01418
G1 X147.619 Y150.549 E.00801
G1 X147.388 Y150.523 E.00802
G1 X147.158 Y150.209 E.01342
;WIDTH:0.421504
G1 X136.365 Y134.789 E.65175
G1 X147.432 Y151.177 F9000
;WIDTH:0.420005
M73 Q0 S195
G1 F600
G1 X146.849 Y150.425 E.03282
;WIDTH:0.421504
G1 X114.419 Y104.097 E1.9582
;WIDTH:0.467786
G1 X114.35 Y103.958 E.00603
;WIDTH:0.514067
M73 P1 R193
M73 Q1 S195
G1 X114.281 Y103.82 E.00665
;WIDTH:0.560348
G1 X114.213 Y103.681 E.00732
G1 X113.928 Y103.274 E.02351
G1 X114.425 Y103.274 E.02352
G1 X114.578 Y103.251 E.00732
;WIDTH:0.5138
G1 X114.731 Y103.228 E.00666
;WIDTH:0.467251
G1 X114.884 Y103.204 E.00601
;WIDTH:0.420702
G1 X147.375 Y103.206 E1.12269
;WIDTH:0.419999
G1 X147.389 Y103.206 E.00048
;WIDTH:0.461754
G1 X148.104 Y103.279 E.02753
G1 X148.178 Y104.002 E.02784
;WIDTH:0.419999
G1 X148.178 Y149.984 E1.5859
G1 X148.126 Y151.009 E.0354
G1 X148.18 Y152.002 E.0343
;WIDTH:0.420005
G1 X148.18 Y152.316 E.01083
G1 X147.465 Y151.227 E.04493
